web_console_v2/client/src/assets/images/file.svg

<svg width="10" viewBox="0 0 16 20" fill="none" xmlns="http://www.w3.org/2000/svg">
<mask id="mask0" mask-type="alpha" maskUnits="userSpaceOnUse" x="0" y="0" width="16" height="20">
<path d="M1.10345 0H11.3434C11.4888 0 11.6284 0.0562739 11.7317 0.156579L15.8366 4.14169C15.9412 4.24319 16 4.38143 16 4.52565V18.9189C16 19.516 15.506 20 14.8966 20H1.10345C0.494031 20 0 19.516 0 18.9189V1.08108C0 0.484016 0.494031 0 1.10345 0Z" fill="white"/>
</mask>
<g mask="url(#mask0)">
<path d="M1.10345 0H11.3434C11.4888 0 11.6284 0.0562739 11.7317 0.156579L15.8366 4.14169C15.9412 4.24319 16 4.38143 16 4.52565V18.9189C16 19.516 15.506 20 14.8966 20H1.10345C0.494031 20 0 19.516 0 18.9189V1.08108C0 0.484016 0.494031 0 1.10345 0Z" fill="#165DFF"/>
<path fill-rule="evenodd" clip-rule="evenodd" d="M11.5698 0H15.9836V4.32433H12.6733C12.0639 4.32433 11.5698 3.84031 11.5698 3.24324V0Z" fill="#94BFFF"/>
</g>
</svg>

<svg xmlns="http://www.w3.org/2000/svg" width="10" fill="none" viewBox="0 0 16 20"><mask id="a" width="16" height="20" x="0" y="0" mask-type="alpha" maskUnits="userSpaceOnUse"><path fill="#fff" d="M1.103 0h10.24c.146 0 .285.056.389.157l4.105 3.985c.104.101.163.24.163.384v14.393c0 .597-.494 1.081-1.103 1.081H1.103C.494 20 0 19.516 0 18.919V1.08C0 .484.494 0 1.103 0Z"/></mask><g mask="url(#a)"><path fill="#165DFF" d="M1.103 0h10.24c.146 0 .285.056.389.157l4.105 3.985c.104.101.163.24.163.384v14.393c0 .597-.494 1.081-1.103 1.081H1.103C.494 20 0 19.516 0 18.919V1.08C0 .484.494 0 1.103 0Z"/><path fill="#94BFFF" d="M11.57 0h4.414v4.324h-3.31c-.61 0-1.104-.484-1.104-1.08V0Z"/></g></svg>
